X:1
T:What a Wonderful Savior!
T:What a Wonderful Savior!
T:Elisha Albright Hoffmann
T:Elisha Albright Hoffmann, 1891
T:Public Domain Courtesy of the Cyber Hymnal™
C:Elisha Albright Hoffmann
Z:Public Domain
Z:Courtesy of the Cyber Hymnal™
%%score ( 1 2 ) 3
L:1/8
Q:1/4=115
M:4/4
K:D
V:1 treble 
V:2 treble 
V:3 bass 
V:1
 [FA]2 | [Fd]2 [Fd]2 [FA]2 [FA]2 | [Ac]2 [GB]2 [FA]2 [EG][EG] | [DF]4 [CE]2 D2 | %4
w: 1.~Christ|has for sin a-|tone- ment made What a|won- der- ful|
w: 2.~I|praise Him for the|cleans- ing blood What a|won- der- ful|
w: 3.~He|cleansed my heart from|all its sin What a|won- der- ful|
w: 4.~He|walks be- side me|in the way: What a|won- der- ful|
 [CA]4 [CA]2 [EA]2 | [Dd]2 [Fd]2 [FA]2 [FA]2 | [Ac]2 [GB]2 [FA]2 [EG][EG] | [DF]4 [EG]2 [CE]2 | %8
w: Sav- ior! We|are re- deemed, the|price is paid What a|won- der- ful|
w: Sav- ior! That|re- con- ciled my|soul to God What a|wond- er- ful|
w: Sav- ior! And|now He reigns and|rules there- in What a|won- der- ful|
w: Sav- ior! And|keeps me faith- ful|day by day; What a|won- der- ful|
 [CE]4 D4 ||"^Refrain" D[DE] | [DF]4 [DE]2 D2 | [FA]4 [DF]2 D2 | [CE]4 [B,D]2 [CE]2 | %13
w: Sav- ior!|||||
w: Sav- ior!|||||
w: Sav- ior!|||||
w: Sav- ior!|||||
 [DF]2 [FA]4 [FA][FA] | [Fd]4 [Gd]2 [GB]2 | [FA]4 [DF]2 D2 | [DF]4 [CE]2 [CE]2 | D6 |] %18
w: |||||
w: |||||
w: |||||
w: |||||
V:2
 x2 | x8 | x8 | x6 D2 | x8 | x8 | x8 | x8 | x4 D4 || D x | x6 D2 | x6 D2 | x8 | x8 | x8 | x6 D2 | %16
 x8 | D6 |] %18
V:3
 [D,A,]2 | [D,A,]2 [D,A,]2 [D,D]2 [D,D]2 | [G,D]2 [G,D]2 [D,D]2 [G,,B,][G,,B,] | %3
w: ~|~ ~ ~ ~|~ ~ ~ ~ ~|
 [A,,A,]4 [A,,G,]2 [A,,F,]2 | [A,,E,]4 [A,,A,]2 [C,A,]2 | [D,F,]2 [D,A,]2 [D,D]2 [D,D]2 | %6
w: ~ ~ ~|~ ~ ~|~ ~ ~ ~|
 [G,D]2 [G,D]2 [D,D]2 [G,,B,][G,,B,] | [A,,A,]4 [A,,A,]2 [A,,G,]2 | [A,,G,]4 [D,F,]4 || %9
w: ~ ~ ~ ~ ~|~ ~ ~|~ ~|
 [D,F,][D,G,] | [D,A,]4 [D,G,]2 [D,F,]2 | [D,D]4 [D,A,]2 [D,F,]2 | [A,,A,]4 [A,,A,]2 [A,,A,]2 | %13
w: What a|won- der- ful|Sav- ior is|Je- sus, my|
 [D,A,]2 [D,D]4 [D,D][D,D] | [D,A,]4 [G,B,]2 [G,D]2 | [D,D]4 [D,A,]2 [D,F,]2 | %16
w: Je- sus! What a|won- der- ful|Sav- ior is|
 [A,,A,]4 [A,,A,]2 [A,,G,]2 | [D,F,]6 |] %18
w: Je- sus, my|Lord!|

